X:1
T:He Slumbers Not
T:He Slumbers Not
T:Daniel Brink Towner
T:Clara Louise Shattuck, 1893
T:Public Domain Courtesy of the Cyber Hymnal™
T:Public Domain Courtesy of the Cyber Hymnal™
C:Daniel Brink Towner
Z:Public Domain
Z:Courtesy of the Cyber Hymnal™
%%score ( 1 2 ) ( 3 4 )
L:1/8
Q:1/4=100
M:4/4
K:C
V:1 treble 
V:2 treble 
V:3 bass 
V:4 bass 
V:1
 [CE]2 | [CE]3 [B,D] [A,C]2 [B,D]2 | [CE]6 [EG]2 | [DG]3 [DF] [CE]2 [B,D]2 | C6 [CE]2 | %5
w: 1.~Fret|not thy- self, my|heart! The|Lord hath care for|thee: Tho’|
w: 2.~He|com- pass- es thy|path And|know- eth all thy|ways; A|
w: 3.~To|Him a thou- sand|years Are|but as yes- ter-|day; An|
w: 4.~Be|si- lent, O my|soul! Let|thy com- plain- ing|cease; On|
 [EA]3 [EB] [Ac][Ac] [AB]>A | [^GB]6 [GB]2 | [Gd]3 [^FA] [GB]2 [FA]2 | G4- G[FG] [FB]>[Ec] | %9
w: de- so- late and poor thou|art, He|shall thy por- tion|be; * His co- ve-|
w: pur- pose true of love He|hath, Which|runs through- out thy|days; * He sees the|
w: hour, an age, the same ap-|pear— He|chang- eth not for|aye; * And soon or|
w: Him thy bur- den thou mayst|roll, And|walk hence- forth in|peace; * Where He a-|
 [Fd]4- [Fd][Af] [Ge]>[Fd] | [Ec]4- [Ec][Ec] [GB]>[FA] | [EG]4- [EG][Ec] [Fd]>[FB] | [Ec]4- [Ec] || %13
w: nant * stands firm and|sure; * His mer- cy|ev- * er shall en-|dure. *|
w: end * thou canst not|see, * And what He|wills * is best for|thee. *|
w: late, * in shade or|sun, * His plan is|wrought, * His will is|done. *|
w: bides * all storms are|stilled, * And ev- ery|need * is more than|filled. *|
"^Refrain" [ce][ce]>[Bd] | [Ac]4- [Ac][Ec] [Ec]>[DB] | [CA]4- [CA][^Fd] [Fd]>[Fe] | %16
w: |||
w: He slum- bers|not, * He will not|sleep, * All safe thou|
w: |||
w: |||
 [^Fd]4- [Fd][GB] [Ac]>[FA] | (z !fermata![FG])[EG][CE]>[EG] x3 | [Ge]4- [Ge][Fd] [Ec]>[EG] | %19
w: |||
w: art, * for He doth|* keep; Hold firm|* * thy trust, tho’|
w: |||
w: |||
 [FA]4- [FA][Af] [Ge]>[Ec] | [Ge]4- [Ge][Fd] [FA]>[FB] | c4- [Ec]2 |] %22
w: |||
w: clouds * a- rise, In|God’s * good hand thy|fu- ture|
w: |||
w: |||
V:2
 x2 | x8 | x8 | x8 | C6 x2 | x15/2 A/ | x8 | x8 | G4- G x3 | x8 | x8 | x8 | x5 || x3 | x8 | x8 | %16
 x8 | G4- D D3/2 E/ x | x8 | x8 | x8 | EE F>F x2 |] %22
V:3
 [A,,A,]2 | [A,,A,]3 [A,,A,] [A,,E,]2 [A,,A,]2 | [A,,A,]6 [G,,C]2 | %3
 [G,,B,]3 [G,,B,] [G,,C]2 (G,F,) | [C,E,]6 [C,G,]2 | [A,,C]3 [A,,D] [A,,E][A,,E] [A,,E]>[A,,C] | %6
 [E,B,]6 [E,B,]2 | [D,B,]3 [D,D] [D,D]2 [D,C]2 | [G,B,]4- [G,B,] z3 | %9
 z ([G,B,][G,B,]>[G,B,] [G,B,]) z3 | z ([C,G,][C,G,]>[C,G,] [C,G,]) z3 | %11
 z ([G,C][G,C]>[G,C] [G,C])G, G,>G, | [C,G,]4- [C,G,] || z3 | z ([A,E][A,E]>[A,E] [A,E]) z3 | %15
 z ([A,E][A,E]>[A,E] [A,E]) z3 | z ([D,A,][D,A,]>[D,A,] [D,A,]) z3 | %17
 z ([G,B,][G,B,]>[G,C] !fermata![G,D]) z3 | z ([C,C][C,C]>[C,C] [C,C]) z3 | %19
 z ([F,C][F,C]>[F,C] [F,C]) z3 | z ([G,C][G,C]>[G,C][G,C][G,B,]) [G,D]>G, | (G,G,A,>A, [C,G,]2) |] %22
V:4
 x2 | x8 | x8 | x6 G,,2 | x8 | x8 | x8 | x8 | x8 | x8 | x8 | x5 G, G,>G, | x5 || x3 | x8 | x8 | %16
 x8 | x8 | x8 | x8 | x15/2 G,/ | C,4- x2 |] %22

